svg/fluentui-system-icons/ic_fluent_filmstrip_split_16_filled.svg

<svg width="16" height="16" viewBox="0 0 16 16" fill="none" xmlns="http://www.w3.org/2000/svg">
<path d="M8.5 1.5C8.5 1.22386 8.27614 1 8 1C7.72386 1 7.5 1.22386 7.5 1.5V14.5C7.5 14.7761 7.72386 15 8 15C8.27614 15 8.5 14.7761 8.5 14.5V1.5ZM1 5.5C1 4.11929 2.11929 3 3.5 3H6.5V13H3.5C2.11929 13 1 11.8807 1 10.5V5.5ZM3 5.5V6.5C3 6.77614 3.22386 7 3.5 7C3.77614 7 4 6.77614 4 6.5V5.5C4 5.22386 3.77614 5 3.5 5C3.22386 5 3 5.22386 3 5.5ZM3.5 9C3.22386 9 3 9.22386 3 9.5V10.5C3 10.7761 3.22386 11 3.5 11C3.77614 11 4 10.7761 4 10.5V9.5C4 9.22386 3.77614 9 3.5 9ZM9.5 13V3H12.5C13.8807 3 15 4.11929 15 5.5V10.5C15 11.8807 13.8807 13 12.5 13H9.5ZM12 5.5V6.5C12 6.77614 12.2239 7 12.5 7C12.7761 7 13 6.77614 13 6.5V5.5C13 5.22386 12.7761 5 12.5 5C12.2239 5 12 5.22386 12 5.5ZM12.5 9C12.2239 9 12 9.22386 12 9.5V10.5C12 10.7761 12.2239 11 12.5 11C12.7761 11 13 10.7761 13 10.5V9.5C13 9.22386 12.7761 9 12.5 9Z" fill="#212121"/>
</svg>

<svg xmlns="http://www.w3.org/2000/svg" width="16" height="16"><path d="M8.5 1.5a.5.5 0 0 0-1 0v13a.5.5 0 0 0 1 0v-13ZM1 5.5A2.5 2.5 0 0 1 3.5 3h3v10h-3A2.5 2.5 0 0 1 1 10.5v-5Zm2 0v1a.5.5 0 0 0 1 0v-1a.5.5 0 0 0-1 0ZM3.5 9a.5.5 0 0 0-.5.5v1a.5.5 0 0 0 1 0v-1a.5.5 0 0 0-.5-.5Zm6 4V3h3A2.5 2.5 0 0 1 15 5.5v5a2.5 2.5 0 0 1-2.5 2.5h-3ZM12 5.5v1a.5.5 0 0 0 1 0v-1a.5.5 0 0 0-1 0Zm.5 3.5a.5.5 0 0 0-.5.5v1a.5.5 0 0 0 1 0v-1a.5.5 0 0 0-.5-.5Z"/></svg>
